swiss/communes/0979.svg

<?xml version="1.0" encoding="UTF-8" standalone="no"?>
<!-- Created with Inkscape (http://www.inkscape.org/) -->
<svg
   xmlns:svg="http://www.w3.org/2000/svg"
   xmlns="http://www.w3.org/2000/svg"
   version="1.0"
   width="603"
   height="763"
   id="svg20">
  <defs
     id="defs29">
    <linearGradient
       id="linearGradient2893">
      <stop
         id="stop2895"
         style="stop-color:#ffffff;stop-opacity:0.3137255"
         offset="0" />
      <stop
         id="stop2897"
         style="stop-color:#ffffff;stop-opacity:0.25098041"
         offset="0.19" />
      <stop
         id="stop2901"
         style="stop-color:#6b6b6b;stop-opacity:0.1254902"
         offset="0.60000002" />
      <stop
         id="stop2899"
         style="stop-color:#000000;stop-opacity:0.1254902"
         offset="1" />
    </linearGradient>
  </defs>
  <desc
     id="desc22">Coat of Arms of Canton of Freiburg (Fribourg)</desc>
  <g
     id="layer3"
     style="display:inline" />
  <g
     id="layer1"
     style="display:inline" />
  <g
     id="layer2"
     style="display:inline" />
  <g
     id="layer4"
     style="display:inline">
    <g
       id="g3423">
      <path
         d="M 0,3 L 0,461.8679 C 0,628.17854 134.31454,763 299.99993,763 C 465.6854,763 600,628.17854 600,461.8679 L 600,3 L 0,3 z"
         id="path2346"
         style="fill:#ffffff;fill-opacity:1;display:inline" />
      <path
         d="M 1.5,1.49998 L 1.5,460.3679 C 1.5,626.6785 135.81456,761.5 301.49999,761.5 C 467.18543,761.5 601.5,626.6785 601.5,460.3679 L 601.5,1.49998 L 1.5,1.49998 z"
         id="path1899"
         style="fill:#e20909;fill-opacity:1;display:inline" />
      <path
         d="M 2.0625,2.0625 L 2.0625,199.03125 L 463.6875,713.75 C 531.56693,669.87881 580.64859,599.26501 596.21875,516.75 L 137.46875,2.0625 L 2.0625,2.0625 z"
         id="path2326"
         style="fill:#ffffff;fill-opacity:1;fill-rule:evenodd;stroke:#000000;stroke-width:4.10363674px;stroke-linecap:butt;stroke-linejoin:miter;stroke-opacity:1;display:inline" />
      <g
         transform="matrix(4.1036368,0,0,4.1036368,-2570.9284,-2328.8139)"
         id="g3278"
         style="display:inline">
        <path
           d="M 705.68572,614.37145 L 757.59996,614.37145 C 758.7141,601.90233 761.61618,590.9088 770,580.2571 C 764.79409,579.66628 759.27685,577.28297 756.71431,585.40003 C 748.31053,580.64521 742.93904,592.61333 753.08582,595.59997 L 747,594 C 746,593.7371 743,596 739.14441,595.59997 C 750,596 748,583 738.42862,585.40003 C 740,572 723,572 724.65714,585.40003 C 717,584 716,596 725.203,595.59997 C 722.0913,596.00929 720.50093,594.0614 718,594 C 715.91343,593.94877 713.3488,595.41184 711.2616,595.59997 C 720.95895,594.62774 717.50636,580.89683 708.14535,585.40003 C 705.48399,579.7101 700.41382,579.64072 695.04976,580.2571 C 701.31358,589.69417 705.81742,601.2798 705.68572,614.37145 z"
           id="path3333"
           style="fill:#fcef3c;fill-opacity:1;fill-rule:evenodd;stroke:#000000;stroke-width:1;stroke-miterlimit:4;stroke-dasharray:none;stroke-opacity:1" />
        <path
           d="M 733,590 A 1,1 0 1 1 731,590 A 1,1 0 1 1 733,590 z"
           id="path2490"
           style="fill:#fcef3c;fill-opacity:1;fill-rule:evenodd;stroke:#000000;stroke-width:1;stroke-miterlimit:4;stroke-dasharray:none;stroke-opacity:1" />
        <path
           d="M 733,590 A 1,1 0 1 1 731,590 A 1,1 0 1 1 733,590 z"
           transform="translate(9.75,17.5)"
           id="path3262"
           style="fill:#fcef3c;fill-opacity:1;fill-rule:evenodd;stroke:#000000;stroke-width:1;stroke-miterlimit:4;stroke-dasharray:none;stroke-opacity:1;display:inline" />
        <path
           d="M 733,590 A 1,1 0 1 1 731,590 A 1,1 0 1 1 733,590 z"
           transform="translate(-0.5,17.5)"
           id="path3264"
           style="fill:#fcef3c;fill-opacity:1;fill-rule:evenodd;stroke:#000000;stroke-width:1;stroke-miterlimit:4;stroke-dasharray:none;stroke-opacity:1;display:inline" />
        <path
           d="M 733,590 A 1,1 0 1 1 731,590 A 1,1 0 1 1 733,590 z"
           transform="translate(-10.75,17.5)"
           id="path3266"
           style="fill:#fcef3c;fill-opacity:1;fill-rule:evenodd;stroke:#000000;stroke-width:1;stroke-miterlimit:4;stroke-dasharray:none;stroke-opacity:1;display:inline" />
        <path
           d="M 733,590 A 1,1 0 1 1 731,590 A 1,1 0 1 1 733,590 z"
           transform="translate(20,17.5)"
           id="path3268"
           style="fill:#fcef3c;fill-opacity:1;fill-rule:evenodd;stroke:#000000;stroke-width:1;stroke-miterlimit:4;stroke-dasharray:none;stroke-opacity:1;display:inline" />
        <path
           d="M 733,590 A 1,1 0 1 1 731,590 A 1,1 0 1 1 733,590 z"
           transform="translate(-21,17.5)"
           id="path3270"
           style="fill:#fcef3c;fill-opacity:1;fill-rule:evenodd;stroke:#000000;stroke-width:1;stroke-miterlimit:4;stroke-dasharray:none;stroke-opacity:1;display:inline" />
        <path
           d="M 704,601 L 760,601"
           id="path3272"
           style="fill:#fcef3c;fill-opacity:1;fill-rule:evenodd;stroke:#000000;stroke-width:1;stroke-miterlimit:4;stroke-dasharray:none;stroke-opacity:1" />
        <path
           d="M 705,605 L 759,605"
           id="path3274"
           style="fill:#fcef3c;fill-opacity:1;fill-rule:evenodd;stroke:#000000;stroke-width:1;stroke-miterlimit:4;stroke-dasharray:none;stroke-opacity:1" />
        <path
           d="M 706,610 L 758,610"
           id="path3276"
           style="fill:#fcef3c;fill-opacity:1;fill-rule:evenodd;stroke:#000000;stroke-width:1;stroke-miterlimit:4;stroke-dasharray:none;stroke-opacity:1" />
      </g>
      <g
         id="g2594"
         style="display:inline">
        <g
           transform="translate(2.2043428,-16.45517)"
           id="g2526">
          <g
             transform="matrix(4.1036368,0,0,4.1036368,-2942.8676,-2573.6494)"
             id="g3322"
             style="display:inline">
            <path
               d="M 756,698 C 763,682 738,672 739,679 C 731,679 742,705 756,698 z"
               id="path3324"
               style="fill:#5ab532;fill-opacity:0.99601596;fill-rule:evenodd;stroke:#000000;stroke-width:1;stroke-miterlimit:4;stroke-dasharray:none;stroke-opacity:1" />
            <path
               d="M 761,701 C 754.68618,695.96097 750,691 744,685 C 750,691 755,696 759,703 L 761,701 z"
               id="path3326"
               style="fill:#5ab532;fill-opacity:0.99601596;fill-rule:evenodd;stroke:#000000;stroke-width:1;stroke-miterlimit:4;stroke-dasharray:none;stroke-opacity:1" />
          </g>
          <g
             transform="matrix(4.1036368,0,0,4.1036368,-2934.6603,-2701.8567)"
             id="g3334"
             style="display:inline">
            <path
               d="M 756,698 C 763,682 738,672 739,679 C 731,679 742,705 756,698 z"
               id="path3336"
               style="fill:#5ab532;fill-opacity:0.99601596;fill-rule:evenodd;stroke:#000000;stroke-width:1;stroke-miterlimit:4;stroke-dasharray:none;stroke-opacity:1" />
            <path
               d="M 761,701 C 754.68618,695.96097 750,691 744,685 C 750,691 755,696 759,703 L 761,701 z"
               id="path3338"
               style="fill:#5ab532;fill-opacity:0.99601596;fill-rule:evenodd;stroke:#000000;stroke-width:1;stroke-miterlimit:4;stroke-dasharray:none;stroke-opacity:1" />
          </g>
        </g>
        <g
           transform="translate(-6.6240169,-6.4061646)"
           id="g2534">
          <g
             transform="matrix(4.1036368,0,0,4.1036368,-2780.5567,-2413.1312)"
             id="g2502"
             style="display:inline">
            <path
               d="M 756,698 C 763,682 738,672 739,679 C 731,679 742,705 756,698 z"
               id="path2504"
               style="fill:#5ab532;fill-opacity:0.99601596;fill-rule:evenodd;stroke:#000000;stroke-width:1;stroke-miterlimit:4;stroke-dasharray:none;stroke-opacity:1" />
            <path
               d="M 761,701 C 754.68618,695.96097 750,691 744,685 C 750,691 755,696 759,703 L 761,701 z"
               id="path2506"
               style="fill:#5ab532;fill-opacity:0.99601596;fill-rule:evenodd;stroke:#000000;stroke-width:1;stroke-miterlimit:4;stroke-dasharray:none;stroke-opacity:1" />
          </g>
          <g
             transform="matrix(4.1036368,0,0,4.1036368,-2772.3494,-2541.3385)"
             id="g2508"
             style="display:inline">
            <path
               d="M 756,698 C 763,682 738,672 739,679 C 731,679 742,705 756,698 z"
               id="path2510"
               style="fill:#5ab532;fill-opacity:0.99601596;fill-rule:evenodd;stroke:#000000;stroke-width:1;stroke-miterlimit:4;stroke-dasharray:none;stroke-opacity:1" />
            <path
               d="M 761,701 C 754.68618,695.96097 750,691 744,685 C 750,691 755,696 759,703 L 761,701 z"
               id="path2512"
               style="fill:#5ab532;fill-opacity:0.99601596;fill-rule:evenodd;stroke:#000000;stroke-width:1;stroke-miterlimit:4;stroke-dasharray:none;stroke-opacity:1" />
          </g>
        </g>
        <g
           transform="translate(6.8585378,4.1610365)"
           id="g2542">
          <g
             transform="matrix(4.1036368,0,0,4.1036368,-2640.5567,-2253.1312)"
             id="g2514"
             style="display:inline">
            <path
               d="M 756,698 C 763,682 738,672 739,679 C 731,679 742,705 756,698 z"
               id="path2516"
               style="fill:#5ab532;fill-opacity:0.99601596;fill-rule:evenodd;stroke:#000000;stroke-width:1;stroke-miterlimit:4;stroke-dasharray:none;stroke-opacity:1" />
            <path
               d="M 761,701 C 754.68618,695.96097 750,691 744,685 C 750,691 755,696 759,703 L 761,701 z"
               id="path2518"
               style="fill:#5ab532;fill-opacity:0.99601596;fill-rule:evenodd;stroke:#000000;stroke-width:1;stroke-miterlimit:4;stroke-dasharray:none;stroke-opacity:1" />
          </g>
          <g
             transform="matrix(4.1036368,0,0,4.1036368,-2632.3494,-2381.3385)"
             id="g2520"
             style="display:inline">
            <path
               d="M 756,698 C 763,682 738,672 739,679 C 731,679 742,705 756,698 z"
               id="path2522"
               style="fill:#5ab532;fill-opacity:0.99601596;fill-rule:evenodd;stroke:#000000;stroke-width:1;stroke-miterlimit:4;stroke-dasharray:none;stroke-opacity:1" />
            <path
               d="M 761,701 C 754.68618,695.96097 750,691 744,685 C 750,691 755,696 759,703 L 761,701 z"
               id="path2524"
               style="fill:#5ab532;fill-opacity:0.99601596;fill-rule:evenodd;stroke:#000000;stroke-width:1;stroke-miterlimit:4;stroke-dasharray:none;stroke-opacity:1" />
          </g>
        </g>
      </g>
      <path
         d="M 1.5000001,1.5000035 L 1.5000001,460.36794 C 1.5000001,626.67854 135.81454,761.5 301.49993,761.5 C 467.1854,761.5 601.5,626.67854 601.5,460.36794 L 601.5,1.5000035 L 1.5000001,1.5000035 z"
         id="path3239"
         style="fill:none;fill-opacity:1;stroke:#000000;stroke-width:4;stroke-miterlimit:4;stroke-dasharray:none;stroke-opacity:1" />
    </g>
  </g>
</svg>

<svg xmlns="http://www.w3.org/2000/svg" version="1.0" width="603" height="763"><g style="display:inline"><path d="M0 3v458.868C0 628.178 134.315 763 300 763s300-134.821 300-301.132V3H0z" style="fill:#fff;fill-opacity:1;display:inline"/><path d="M1.5 1.5v458.868c0 166.31 134.315 301.132 300 301.132s300-134.822 300-301.132V1.5H1.5z" style="fill:#e20909;fill-opacity:1;display:inline"/><path d="M2.063 2.063V199.03L463.688 713.75c67.879-43.871 116.96-114.485 132.53-197L137.469 2.062H2.064z" style="fill:#fff;fill-opacity:1;fill-rule:evenodd;stroke:#000;stroke-width:4.10363674px;stroke-linecap:butt;stroke-linejoin:miter;stroke-opacity:1;display:inline"/><g style="display:inline"><path d="M705.686 614.371H757.6c1.114-12.469 4.016-23.462 12.4-34.114-5.206-.59-10.723-2.974-13.286 5.143-8.403-4.755-13.775 7.213-3.628 10.2L747 594c-1-.263-4 2-7.856 1.6C750 596 748 583 738.43 585.4 740 572 723 572 724.657 585.4 717 584 716 596 725.203 595.6c-3.112.41-4.702-1.539-7.203-1.6-2.087-.051-4.651 1.412-6.738 1.6 9.697-.972 6.244-14.703-3.117-10.2-2.661-5.69-7.731-5.76-13.095-5.143 6.264 9.437 10.767 21.023 10.636 34.114z" style="fill:#fcef3c;fill-opacity:1;fill-rule:evenodd;stroke:#000;stroke-width:1;stroke-miterlimit:4;stroke-dasharray:none;stroke-opacity:1" transform="matrix(4.10364 0 0 4.10364 -2570.928 -2328.814)"/><path d="M733 590a1 1 0 1 1-2 0 1 1 0 1 1 2 0z" style="fill:#fcef3c;fill-opacity:1;fill-rule:evenodd;stroke:#000;stroke-width:1;stroke-miterlimit:4;stroke-dasharray:none;stroke-opacity:1" transform="matrix(4.10364 0 0 4.10364 -2570.928 -2328.814)"/><path d="M733 590a1 1 0 1 1-2 0 1 1 0 1 1 2 0z" transform="matrix(4.10364 0 0 4.10364 -2530.918 -2257)" style="fill:#fcef3c;fill-opacity:1;fill-rule:evenodd;stroke:#000;stroke-width:1;stroke-miterlimit:4;stroke-dasharray:none;stroke-opacity:1;display:inline"/><path d="M733 590a1 1 0 1 1-2 0 1 1 0 1 1 2 0z" transform="matrix(4.10364 0 0 4.10364 -2572.98 -2257)" style="fill:#fcef3c;fill-opacity:1;fill-rule:evenodd;stroke:#000;stroke-width:1;stroke-miterlimit:4;stroke-dasharray:none;stroke-opacity:1;display:inline"/><path d="M733 590a1 1 0 1 1-2 0 1 1 0 1 1 2 0z" transform="matrix(4.10364 0 0 4.10364 -2615.042 -2257)" style="fill:#fcef3c;fill-opacity:1;fill-rule:evenodd;stroke:#000;stroke-width:1;stroke-miterlimit:4;stroke-dasharray:none;stroke-opacity:1;display:inline"/><path d="M733 590a1 1 0 1 1-2 0 1 1 0 1 1 2 0z" transform="matrix(4.10364 0 0 4.10364 -2488.856 -2257)" style="fill:#fcef3c;fill-opacity:1;fill-rule:evenodd;stroke:#000;stroke-width:1;stroke-miterlimit:4;stroke-dasharray:none;stroke-opacity:1;display:inline"/><path d="M733 590a1 1 0 1 1-2 0 1 1 0 1 1 2 0z" transform="matrix(4.10364 0 0 4.10364 -2657.105 -2257)" style="fill:#fcef3c;fill-opacity:1;fill-rule:evenodd;stroke:#000;stroke-width:1;stroke-miterlimit:4;stroke-dasharray:none;stroke-opacity:1;display:inline"/><path d="M704 601h56M705 605h54M706 610h52" style="fill:#fcef3c;fill-opacity:1;fill-rule:evenodd;stroke:#000;stroke-width:1;stroke-miterlimit:4;stroke-dasharray:none;stroke-opacity:1" transform="matrix(4.10364 0 0 4.10364 -2570.928 -2328.814)"/></g><g style="display:inline"><g style="display:inline"><path d="M756 698c7-16-18-26-17-19-8 0 3 26 17 19z" style="fill:#5ab532;fill-opacity:.99601596;fill-rule:evenodd;stroke:#000;stroke-width:1;stroke-miterlimit:4;stroke-dasharray:none;stroke-opacity:1" transform="matrix(4.10364 0 0 4.10364 -2940.663 -2590.105)"/><path d="M761 701c-6.314-5.039-11-10-17-16 6 6 11 11 15 18l2-2z" style="fill:#5ab532;fill-opacity:.99601596;fill-rule:evenodd;stroke:#000;stroke-width:1;stroke-miterlimit:4;stroke-dasharray:none;stroke-opacity:1" transform="matrix(4.10364 0 0 4.10364 -2940.663 -2590.105)"/></g><g style="display:inline"><path d="M756 698c7-16-18-26-17-19-8 0 3 26 17 19z" style="fill:#5ab532;fill-opacity:.99601596;fill-rule:evenodd;stroke:#000;stroke-width:1;stroke-miterlimit:4;stroke-dasharray:none;stroke-opacity:1" transform="matrix(4.10364 0 0 4.10364 -2932.456 -2718.312)"/><path d="M761 701c-6.314-5.039-11-10-17-16 6 6 11 11 15 18l2-2z" style="fill:#5ab532;fill-opacity:.99601596;fill-rule:evenodd;stroke:#000;stroke-width:1;stroke-miterlimit:4;stroke-dasharray:none;stroke-opacity:1" transform="matrix(4.10364 0 0 4.10364 -2932.456 -2718.312)"/></g><g style="display:inline"><path d="M756 698c7-16-18-26-17-19-8 0 3 26 17 19z" style="fill:#5ab532;fill-opacity:.99601596;fill-rule:evenodd;stroke:#000;stroke-width:1;stroke-miterlimit:4;stroke-dasharray:none;stroke-opacity:1" transform="matrix(4.10364 0 0 4.10364 -2787.18 -2419.537)"/><path d="M761 701c-6.314-5.039-11-10-17-16 6 6 11 11 15 18l2-2z" style="fill:#5ab532;fill-opacity:.99601596;fill-rule:evenodd;stroke:#000;stroke-width:1;stroke-miterlimit:4;stroke-dasharray:none;stroke-opacity:1" transform="matrix(4.10364 0 0 4.10364 -2787.18 -2419.537)"/></g><g style="display:inline"><path d="M756 698c7-16-18-26-17-19-8 0 3 26 17 19z" style="fill:#5ab532;fill-opacity:.99601596;fill-rule:evenodd;stroke:#000;stroke-width:1;stroke-miterlimit:4;stroke-dasharray:none;stroke-opacity:1" transform="matrix(4.10364 0 0 4.10364 -2778.973 -2547.745)"/><path d="M761 701c-6.314-5.039-11-10-17-16 6 6 11 11 15 18l2-2z" style="fill:#5ab532;fill-opacity:.99601596;fill-rule:evenodd;stroke:#000;stroke-width:1;stroke-miterlimit:4;stroke-dasharray:none;stroke-opacity:1" transform="matrix(4.10364 0 0 4.10364 -2778.973 -2547.745)"/></g><g><g style="display:inline"><path d="M756 698c7-16-18-26-17-19-8 0 3 26 17 19z" style="fill:#5ab532;fill-opacity:.99601596;fill-rule:evenodd;stroke:#000;stroke-width:1;stroke-miterlimit:4;stroke-dasharray:none;stroke-opacity:1" transform="matrix(4.10364 0 0 4.10364 -2633.698 -2248.97)"/><path d="M761 701c-6.314-5.039-11-10-17-16 6 6 11 11 15 18l2-2z" style="fill:#5ab532;fill-opacity:.99601596;fill-rule:evenodd;stroke:#000;stroke-width:1;stroke-miterlimit:4;stroke-dasharray:none;stroke-opacity:1" transform="matrix(4.10364 0 0 4.10364 -2633.698 -2248.97)"/></g><g style="display:inline"><path d="M756 698c7-16-18-26-17-19-8 0 3 26 17 19z" style="fill:#5ab532;fill-opacity:.99601596;fill-rule:evenodd;stroke:#000;stroke-width:1;stroke-miterlimit:4;stroke-dasharray:none;stroke-opacity:1" transform="matrix(4.10364 0 0 4.10364 -2625.49 -2377.177)"/><path d="M761 701c-6.314-5.039-11-10-17-16 6 6 11 11 15 18l2-2z" style="fill:#5ab532;fill-opacity:.99601596;fill-rule:evenodd;stroke:#000;stroke-width:1;stroke-miterlimit:4;stroke-dasharray:none;stroke-opacity:1" transform="matrix(4.10364 0 0 4.10364 -2625.49 -2377.177)"/></g></g></g><path d="M1.5 1.5v458.868c0 166.31 134.315 301.132 300 301.132s300-134.821 300-301.132V1.5H1.5z" style="fill:none;fill-opacity:1;stroke:#000;stroke-width:4;stroke-miterlimit:4;stroke-dasharray:none;stroke-opacity:1"/></g></svg>
